X: 36379
T: Sean Quinn's
R: reel
M: 4/4
K: Dmajor
|:DF ~F2 AFAB|defd ed (3Bcd|AFAB defd|e^def e=d (3Bcd|
DE ~F2 AFAB|defd edBA|=cd=cA (3GAB cA|1 GE=CE D2 FE:|2 GE=CE D2 fg||
|:a^gab afdf|gfga ge=ce|a^gab afdf|Beed (3e^ef g=e|
a^gab afdf|Bggf gbag|fagf efge|1 ~a2 ge fddf:|2 ~a2 ge fdd2||

